X: 41504
T: Uist
R: reel
M: 4/4
K: Amixolydian
|:A|D2 FD D2 dA|BcBc EFGE|D2 FD D2 dA|BcEG ADD:|
A|dAAd F2 dA|BcBc EFGE|1 dAAd F2 dA|BcEG ADD:|2 FDAD A2 Bc|ECEG ADD||
|:e|A2cA A2 ae|fgfg BcdB|A2 cA A2 ae|fgBd eAA:|
e|aeea c2 ae|fgfg BcdB|1 aeea c2 ae|fgBd eAA:|2 cAeA e2 fg|BGBd eAA||

